X: 8
T:Ack h\"ogsta himmel och fallande jord (Love song from the 19th Century)
M:C
L:1/8
Q:126
C:anon.
O:Sweden
Z:Transcribed by Frank Nordberg - http://www.musicaviva.com
K:Gm
d|(ge ce) (dB GA)|(BG) (A^F) G2 z =F|(FB) (Bd) (df) (fe)|(ce gf) d2 z B|
(dB) (d^f) (gaba)|(gf) (d=e) f2 z ^f|(gf de) (dB) (GA)|(BG) (A^F) G4|]
W:
W: From "Falaleiro" http://home.t-online.de/home/pheld/homepage.htm

